static/transferProgress/loading.svg

<?xml version="1.0" encoding="UTF-8"?>
<svg width="40px" height="40px" viewBox="0 0 40 40" version="1.1" xmlns="http://www.w3.org/2000/svg" xmlns:xlink="http://www.w3.org/1999/xlink">
    <title>87B34FE5-AA5B-4A27-8FF5-211D61FFC339</title>
    <g id="🕹-Component" stroke="none" stroke-width="1" fill="none" fill-rule="evenodd" >
        <g id="Component_04" transform="translate(-516.000000, -291.000000)"  >
            <g id="Step/Loading-with-link" transform="translate(477.000000, 291.000000)">
                <g id="Icon/Loading"  transform="translate(39.000000, 0.000000)">		
				
                    <g id="Group" transform="translate(3.333333, 3.333333)">		
					
                        <path d="M16.6666667,0 C7.46192084,0 0,7.46192084 0,16.6666667 C0,25.8714125 7.46192084,33.3333333 16.6666667,33.3333333 C25.8714125,33.3333333 33.3333333,25.8714125 33.3333333,16.6666667 C33.3333333,7.46192084 25.8714125,0 16.6666667,0 Z M16.6666667,3.7037037 C23.8259134,3.7037037 29.6296296,9.50741991 29.6296296,16.6666667 C29.6296296,23.8259134 23.8259134,29.6296296 16.6666667,29.6296296 C9.50741991,29.6296296 3.7037037,23.8259134 3.7037037,16.6666667 C3.7037037,9.50741991 9.50741991,3.7037037 16.6666667,3.7037037 Z" id="Oval-Copy" fill="#DEDDDE" ></path>
                        <path d="M16.2332212,0 C25.6655918,0 33.3333333,7.44977909 33.3333333,16.6666667 C33.3333333,25.8835542 25.6655918,33.3333333 16.2332212,33.3333333 C11.7067005,33.3333333 7.95297119,31.3723945 4.7785512,28.346769 C4.03821537,27.6411349 4.01008404,26.4689447 4.71571813,25.7286089 C5.42135222,24.988273 6.59354245,24.9601417 7.33387828,25.6657758 C9.82367148,28.038865 12.6640885,29.6296296 16.2332212,29.6296296 C23.6436138,29.6296296 29.6296296,23.8137717 29.6296296,16.6666667 C29.6296296,9.51956166 23.6436138,3.7037037 16.2332212,3.7037037 C15.2104717,3.7037037 14.3813694,2.87460139 14.3813694,1.85185185 C14.3813694,0.829102315 15.2104717,0 16.2332212,0 Z" id="Path" fill="#1B05A1"></path>
                    </g>
                </g>
            </g>
        </g>
    </g>
</svg>

<svg xmlns="http://www.w3.org/2000/svg" width="40" height="40" viewBox="0 0 40 40">
    <g fill="none" fill-rule="evenodd">
        <g>
            <g>
                <g>
                    <g>
                        <g>
                            <g>
                                <path fill="#E5E5E5" d="M16.667 0C7.462 0 0 7.462 0 16.667c0 9.204 7.462 16.666 16.667 16.666 9.204 0 16.666-7.462 16.666-16.666C33.333 7.462 25.871 0 16.667 0zm0 3.704c7.159 0 12.963 5.803 12.963 12.963 0 7.159-5.804 12.963-12.963 12.963-7.16 0-12.963-5.804-12.963-12.963 0-7.16 5.803-12.963 12.963-12.963z" transform="translate(-491 -634) translate(263 290) translate(24 344) translate(165) translate(39) translate(3.333 3.333)"/>
                                <path fill="#1A38F8" d="M16.233 0c9.433 0 17.1 7.45 17.1 16.667 0 9.217-7.667 16.666-17.1 16.666-4.526 0-8.28-1.96-11.454-4.986-.74-.706-.769-1.878-.063-2.618.705-.74 1.878-.769 2.618-.063 2.49 2.373 5.33 3.964 8.9 3.964 7.41 0 13.396-5.816 13.396-12.963 0-7.147-5.986-12.963-13.397-12.963-1.023 0-1.852-.83-1.852-1.852 0-1.023.83-1.852 1.852-1.852z" transform="translate(-491 -634) translate(263 290) translate(24 344) translate(165) translate(39) translate(3.333 3.333)"/>
                            </g>
                        </g>
                    </g>
                </g>
            </g>
        </g>
    </g>
</svg>
